public/assets/icons/file-image.svg

<svg width="44" height="44" viewBox="0 0 44 44" fill="none" xmlns="http://www.w3.org/2000/svg">
<path d="M13.1329 31.8383C11.9256 31.8362 10.7495 31.4625 9.76988 30.7698C8.79028 30.0772 8.05652 29.1005 7.67184 27.9771L7.61788 27.803C7.44518 27.2724 7.35525 26.7192 7.35115 26.1622V15.8422L3.61076 28.0997C3.38184 28.9719 3.51075 29.8974 3.96978 30.6773C4.4288 31.4571 5.18126 32.0289 6.0653 32.2697L29.906 38.5377C30.2036 38.6134 30.5012 38.6497 30.7941 38.6497C32.3297 38.6497 33.7328 37.6492 34.1259 36.1749L35.5151 31.8383H13.1329ZM17.3728 15.9452C19.0734 15.9452 20.4564 14.5874 20.4564 12.9179C20.4564 11.2484 19.0734 9.89062 17.3728 9.89062C15.6722 9.89062 14.2892 11.2484 14.2892 12.9179C14.2892 14.5874 15.6722 15.9452 17.3728 15.9452Z" fill="#F9AB72"/>
<path d="M36.6454 5.34961H13.5185C12.4966 5.35081 11.517 5.74988 10.7944 6.45927C10.0718 7.16867 9.66529 8.13047 9.66406 9.1337V25.7837C9.66406 27.8695 11.394 29.5678 13.5185 29.5678H36.6454C38.77 29.5678 40.4999 27.8695 40.4999 25.7837V9.1337C40.4999 7.04791 38.77 5.34961 36.6454 5.34961ZM13.5185 8.37688H36.6454C36.8499 8.37688 37.046 8.45662 37.1905 8.59855C37.3351 8.74048 37.4163 8.93298 37.4163 9.1337V19.879L32.5458 14.2997C32.2883 14.0093 31.9707 13.7761 31.6142 13.6156C31.2577 13.4551 30.8705 13.371 30.4783 13.3689C30.0847 13.3709 29.6964 13.4574 29.3406 13.6224C28.9847 13.7874 28.67 14.0268 28.4184 14.324L22.6922 21.0718L20.8266 19.2448C20.3193 18.7475 19.6317 18.4682 18.9148 18.4682C18.1979 18.4682 17.5103 18.7475 17.003 19.2448L12.7476 23.4209V9.1337C12.7476 8.93298 12.8289 8.74048 12.9734 8.59855C13.118 8.45662 13.3141 8.37688 13.5185 8.37688Z" fill="#F9AB72"/>
</svg>

<svg xmlns="http://www.w3.org/2000/svg" width="44" height="44" fill="none"><path fill="#F9AB72" d="M13.133 31.838A5.84 5.84 0 0 1 9.77 30.77a5.68 5.68 0 0 1-2.098-2.793l-.054-.174a5.4 5.4 0 0 1-.267-1.64v-10.32L3.611 28.1c-.23.872-.1 1.797.359 2.577a3.5 3.5 0 0 0 2.095 1.593l23.841 6.268q.448.112.888.112c1.536 0 2.939-1 3.332-2.475l1.39-4.337zm4.24-15.893c1.7 0 3.083-1.358 3.083-3.027S19.073 9.89 17.373 9.89s-3.084 1.357-3.084 3.027 1.383 3.027 3.084 3.027"/><path fill="#F9AB72" d="M36.645 5.35H13.518a3.9 3.9 0 0 0-2.724 1.11 3.75 3.75 0 0 0-1.13 2.674v16.65c0 2.085 1.73 3.784 3.855 3.784h23.126c2.125 0 3.855-1.699 3.855-3.784V9.134c0-2.086-1.73-3.784-3.855-3.784M13.518 8.377h23.127c.205 0 .401.08.545.222a.75.75 0 0 1 .226.535v10.745l-4.87-5.58a2.8 2.8 0 0 0-.932-.683 2.8 2.8 0 0 0-1.136-.247 2.7 2.7 0 0 0-1.137.253 2.7 2.7 0 0 0-.923.702l-5.726 6.748-1.865-1.827a2.73 2.73 0 0 0-1.912-.777c-.717 0-1.405.28-1.912.777l-4.255 4.176V9.134c0-.201.08-.394.225-.535a.78.78 0 0 1 .545-.222"/></svg>
